!!!SOCIAL_FUNCTION:	miscellaneous songs
!!!PDT:	1956
!!!OTL: No_238_Drinking_Song_(b).krn
!!!LANG: Non-Tone
!!!LING_GROUP: Muskogean
!!!REG: Florida
**kern
*staff1
=1-
=
*clefG2
*k[f#c#g#]
*M3/4
8.a/L
16b/Jk
4a/
12a/L
12f#/
12e/J
=2||
*M2/4
4..e/
16f#/
=3
8.e/L
16c#/Jk
4A;/
=4
12B/L
12A/
12E/J
8E/
16r
16e/
=5
=
*M3/8
16B/LL
16A/J
8A/J
24B/LL
24A/
24E/JJ
=6||
*M2/4
4..A/
16F#/
=7||
*M3/4
8.A/L
16G#/Jk
16A/LL
16F#/J
8G#/J
4r
=8||
*M2/4
8.A/L
16A/Jk
12A/L
12A/
12A/J
==:|!
*-
